icons/fm-play-circle.svg

<svg
  viewBox="0 0 16 16"
  xmlns="http://www.w3.org/2000/svg"
>
  <path
    d="m 8,-3.814695e-6 c -4.41824,0 -8,3.581597614695 -8,7.999997614695 0,4.4184102 3.58176,8.0000102 8,8.0000102 4.4182,0 8,-3.5816 8,-8.0000102 C 16,3.5815938 12.4182,-3.814695e-6 8,-3.814695e-6 Z M 8,1.5999938 c 3.5346,0 6.4,2.8656 6.4,6.4 0,3.5344102 -2.8654,6.4000102 -6.4,6.4000102 -3.53464,0 -6.4,-2.8656 -6.4,-6.4000102 0,-3.5344 2.86536,-6.4 6.4,-6.4 z m -1.9,3.32481 c -0.29496,0.1584 -0.5,0.45519 -0.5,0.87519 v 4.4000102 c 0,0.8392 0.83512,1.2416 1.52496,0.8496 L 10.375,9.1999938 c 1.1028,-0.684 1.0629,-1.74 0,-2.4 l -3.25004,-1.84959 c -0.34488,-0.196 -0.73,-0.184 -1.02496,-0.0256 z"
  />
</svg>

<svg
  viewBox="0 0 16 16"
  xmlns="http://www.w3.org/2000/svg"
>
  <path
    d="M8 -7.62939e-06C3.58176 -7.62939e-06 0 3.58159 0 7.99999C0 12.4184 3.58176 16 8 16C12.4182 16 16 12.4184 16 7.99999C16 3.58159 12.4182 -7.62939e-06 8 -7.62939e-06ZM8 1.59999C11.5346 1.59999 14.4 4.46559 14.4 7.99999C14.4 11.5344 11.5346 14.4 8 14.4C4.46536 14.4 1.6 11.5344 1.6 7.99999C1.6 4.46559 4.46536 1.59999 8 1.59999ZM6.1 4.9248C5.80504 5.0832 5.6 5.37999 5.6 5.79999V10.2C5.6 11.0392 6.43512 11.4416 7.12496 11.0496L10.375 9.19999C11.4778 8.51599 11.4379 7.45999 10.375 6.79999L7.12496 4.9504C6.78008 4.7544 6.39496 4.7664 6.1 4.9248Z"
  />
</svg>
